X:1
T:Marquis Hansley's -- Reel
R:reel
B:Ryan's Mammoth Collection
N:272
O:SCOTCH
Z:Contributed by Ray Davies,  ray:davies99.freeserve.co.uk
M:C|
L:1/8
K:D
u((3GFE)|\
D2 (FD) ADFD | C2 (CA,) EA,CA, | D2 (FD) ADFD |\
((3Bcd) ((3efg) (fd) d z |
D2 (FD) ADFD | A,2 (CA,) EA,CA, | D2 (FD) ADFD |\
((3Bcd) ((3efg) (fd) d :|
|:uA|\
d2f2 gefd | B2 (ed) cABc | d2f2 gefd | ((3Bcd)((3efg) (fd) d2 |
d2f2 gefd | B2 (ed) cABg | ((3fgf)((3edc) ((3dcB)((3AGF) | \
((3Bcd)((3efg) (fd) d :|
